!!!COM: Motsete, Kgalemang Tumedisco
!!!CDT: 1900-1974
!!!OTL: National Anthem, Botswana
!!!ENC: Davis, Matthew J.
!!Vocal Line Only
**kern
clefG2
*k[]
*C:
*M4/4
=1-
8g
8e
=2
4cc
4g
4e
4cc
=3
2.b
8f
8d
=4
4b
4d
4f
4a
=5
2.g
8e
8c
=6
4a
4e
4g
4g
=7
4.f
8g
4a
8b-
8g
=8
4ee
4cc
4g
4dd
=9
2cc
4r
!Chorus
4cc
=10
b-
8cc
4dd
4a
=11
4.g
8cc
4g
4cc
=12
8b
8d
8f
8g
4b
4a
=13
8g
8e
8g
8cc
4g
8g
8g
=14
8a
4a
8a
8b
4dd
8b
=15
4.cc
8cc
4ff
4ff
=16
2ee
2ss
=17
2.cc
==|!
*-
